ES3T1/39/aimg/1_coronavirus.svg

<svg clip-rule="evenodd" fill-rule="evenodd" stroke-linejoin="round" stroke-miterlimit="2" viewBox="0 0 401 57" xmlns="http://www.w3.org/2000/svg"><g fill="#231f20" fill-rule="nonzero"><path d="m.486-.012c-.06.016-.116.024-.167.024-.085 0-.153-.025-.203-.075-.049-.051-.074-.119-.074-.206s.026-.156.077-.205c.051-.05.121-.074.212-.074.043 0 .093.007.15.021v.104c-.059-.019-.106-.029-.142-.029-.043 0-.078.017-.104.05-.027.033-.04.077-.04.132 0 .057.015.102.043.136.029.034.067.051.114.051.043 0 .088-.01.134-.029z" transform="matrix(73.522142151 0 0 73.522142151 -2.242732864 55.78587954)"/><path d="m.315.012c-.083 0-.15-.025-.199-.076-.049-.05-.074-.118-.074-.204 0-.087.025-.155.074-.205.05-.05.118-.075.203-.075s.153.025.203.075c.049.05.074.118.074.204 0 .088-.025.157-.075.206-.049.05-.118.075-.206.075zm.003-.09c.083 0 .124-.064.124-.191 0-.058-.011-.104-.033-.138s-.052-.051-.09-.051-.068.017-.09.051-.033.08-.033.139c0 .058.011.104.033.139.021.034.051.051.089.051z" transform="matrix(73.522142151 0 0 73.522142151 32.817711851 55.78587954)"/><path d="m.09 0v-.536h.145v.101c.037-.076.094-.113.171-.113.009 0 .018.001.027.003v.128c-.021-.007-.04-.011-.058-.011-.057 0-.104.029-.14.088v.34z" transform="matrix(73.522142151 0 0 73.522142151 75.70399616 55.78587954)"/><path d="m.315.012c-.083 0-.15-.025-.199-.076-.049-.05-.074-.118-.074-.204 0-.087.025-.155.074-.205.05-.05.118-.075.203-.075s.153.025.203.075c.049.05.074.118.074.204 0 .088-.025.157-.075.206-.049.05-.118.075-.206.075zm.003-.09c.083 0 .124-.064.124-.191 0-.058-.011-.104-.033-.138s-.052-.051-.09-.051-.068.017-.09.051-.033.08-.033.139c0 .058.011.104.033.139.021.034.051.051.089.051z" transform="matrix(73.522142151 0 0 73.522142151 105.05818631 55.78587954)"/><path d="m.09 0v-.536h.145v.101c.047-.076.108-.113.182-.113.048 0 .086.015.114.045.027.03.041.072.041.124v.379h-.144v-.343c0-.061-.02-.092-.061-.092-.046 0-.09.033-.132.098v.337z" transform="matrix(73.522142151 0 0 73.522142151 147.94155395 55.78587954)"/><path d="m.353-.058c-.048.047-.1.07-.155.07-.047 0-.085-.014-.114-.043-.029-.028-.044-.066-.044-.111 0-.059.024-.105.071-.137s.115-.048.203-.048h.039v-.049c0-.056-.032-.083-.095-.083-.057 0-.113.015-.171.047v-.099c.065-.025.13-.037.194-.037.141 0 .211.055.211.167v.237c0 .042.013.063.04.063.005 0 .011 0 .019-.002l.004.082c-.031.009-.058.013-.081.013-.06 0-.098-.023-.115-.07zm0-.077v-.109h-.034c-.094 0-.14.029-.14.088 0 .02.006.036.02.05.013.013.03.02.05.02.034 0 .069-.016.104-.049z" transform="matrix(73.522142151 0 0 73.522142151 192.15825599 55.78587954)"/><path d="m.223 0-.205-.536h.152l.15.387.149-.387h.105l-.207.536z" transform="matrix(73.522142151 0 0 73.522142151 231.31245398 55.78587954)"/><path d="m.09 0v-.536h.145v.536zm0-.626v-.121h.145v.121z" transform="matrix(73.522142151 0 0 73.522142151 270.85831895 55.78587954)"/><path d="m.09 0v-.536h.145v.101c.037-.076.094-.113.171-.113.009 0 .018.001.027.003v.128c-.021-.007-.04-.011-.058-.011-.057 0-.104.029-.14.088v.34z" transform="matrix(73.522142151 0 0 73.522142151 290.69583482 55.78587954)"/><path d="m.422 0v-.101c-.047.075-.108.113-.183.113-.048 0-.085-.015-.113-.045s-.042-.072-.042-.124v-.379h.145v.343c0 .061.02.091.061.091.046 0 .09-.032.132-.097v-.337h.144v.536z" transform="matrix(73.522142151 0 0 73.522142151 320.05002497 55.78587954)"/><path d="m.076-.017v-.106c.072.03.133.045.184.045.059 0 .089-.02.089-.061 0-.026-.025-.049-.074-.068l-.048-.02c-.053-.021-.091-.044-.114-.069s-.034-.055-.034-.092c0-.05.019-.09.058-.118.038-.028.093-.042.162-.042.044 0 .096.006.156.019v.101c-.058-.02-.106-.03-.144-.03-.06 0-.09.019-.09.056 0 .024.022.045.067.062l.042.016c.062.024.106.048.131.072.024.024.037.056.037.094 0 .051-.021.092-.063.123-.042.032-.096.047-.164.047-.064 0-.129-.01-.195-.029z" transform="matrix(73.522142151 0 0 73.522142151 364.26672701 55.78587954)"/></g></svg>

<?xml version="1.0" encoding="UTF-8" standalone="no"?>
<!DOCTYPE svg PUBLIC "-//W3C//DTD SVG 1.1//EN" "http://www.w3.org/Graphics/SVG/1.1/DTD/svg11.dtd">
<svg width="100%" height="100%" viewBox="0 0 401 57" version="1.1" xmlns="http://www.w3.org/2000/svg" xmlns:xlink="http://www.w3.org/1999/xlink" xml:space="preserve" xmlns:serif="http://www.serif.com/" style="fill-rule:evenodd;clip-rule:evenodd;stroke-linejoin:round;stroke-miterlimit:2;">
    <g transform="matrix(1,0,0,1,-828,-117)">
        <g transform="matrix(4.16667,0,0,4.16667,491.837,-509.973)">
            <g transform="matrix(17.6453,0,0,17.6453,80.1408,163.862)">
                <path d="M0.486,-0.012C0.426,0.004 0.37,0.012 0.319,0.012C0.234,0.012 0.166,-0.013 0.116,-0.063C0.067,-0.114 0.042,-0.182 0.042,-0.269C0.042,-0.356 0.068,-0.425 0.119,-0.474C0.17,-0.524 0.24,-0.548 0.331,-0.548C0.374,-0.548 0.424,-0.541 0.481,-0.527L0.481,-0.423C0.422,-0.442 0.375,-0.452 0.339,-0.452C0.296,-0.452 0.261,-0.435 0.235,-0.402C0.208,-0.369 0.195,-0.325 0.195,-0.27C0.195,-0.213 0.21,-0.168 0.238,-0.134C0.267,-0.1 0.305,-0.083 0.352,-0.083C0.395,-0.083 0.44,-0.093 0.486,-0.112L0.486,-0.012Z" style="fill:rgb(35,31,32);fill-rule:nonzero;"/>
            </g>
            <g transform="matrix(17.6453,0,0,17.6453,88.5553,163.862)">
                <path d="M0.315,0.012C0.232,0.012 0.165,-0.013 0.116,-0.064C0.067,-0.114 0.042,-0.182 0.042,-0.268C0.042,-0.355 0.067,-0.423 0.116,-0.473C0.166,-0.523 0.234,-0.548 0.319,-0.548C0.404,-0.548 0.472,-0.523 0.522,-0.473C0.571,-0.423 0.596,-0.355 0.596,-0.269C0.596,-0.181 0.571,-0.112 0.521,-0.063C0.472,-0.013 0.403,0.012 0.315,0.012ZM0.318,-0.078C0.401,-0.078 0.442,-0.142 0.442,-0.269C0.442,-0.327 0.431,-0.373 0.409,-0.407C0.387,-0.441 0.357,-0.458 0.319,-0.458C0.281,-0.458 0.251,-0.441 0.229,-0.407C0.207,-0.373 0.196,-0.327 0.196,-0.268C0.196,-0.21 0.207,-0.164 0.229,-0.129C0.25,-0.095 0.28,-0.078 0.318,-0.078Z" style="fill:rgb(35,31,32);fill-rule:nonzero;"/>
            </g>
            <g transform="matrix(17.6453,0,0,17.6453,98.848,163.862)">
                <path d="M0.09,0L0.09,-0.536L0.235,-0.536L0.235,-0.435C0.272,-0.511 0.329,-0.548 0.406,-0.548C0.415,-0.548 0.424,-0.547 0.433,-0.545L0.433,-0.417C0.412,-0.424 0.393,-0.428 0.375,-0.428C0.318,-0.428 0.271,-0.399 0.235,-0.34L0.235,0L0.09,0Z" style="fill:rgb(35,31,32);fill-rule:nonzero;"/>
            </g>
            <g transform="matrix(17.6453,0,0,17.6453,105.893,163.862)">
                <path d="M0.315,0.012C0.232,0.012 0.165,-0.013 0.116,-0.064C0.067,-0.114 0.042,-0.182 0.042,-0.268C0.042,-0.355 0.067,-0.423 0.116,-0.473C0.166,-0.523 0.234,-0.548 0.319,-0.548C0.404,-0.548 0.472,-0.523 0.522,-0.473C0.571,-0.423 0.596,-0.355 0.596,-0.269C0.596,-0.181 0.571,-0.112 0.521,-0.063C0.472,-0.013 0.403,0.012 0.315,0.012ZM0.318,-0.078C0.401,-0.078 0.442,-0.142 0.442,-0.269C0.442,-0.327 0.431,-0.373 0.409,-0.407C0.387,-0.441 0.357,-0.458 0.319,-0.458C0.281,-0.458 0.251,-0.441 0.229,-0.407C0.207,-0.373 0.196,-0.327 0.196,-0.268C0.196,-0.21 0.207,-0.164 0.229,-0.129C0.25,-0.095 0.28,-0.078 0.318,-0.078Z" style="fill:rgb(35,31,32);fill-rule:nonzero;"/>
            </g>
            <g transform="matrix(17.6453,0,0,17.6453,116.185,163.862)">
                <path d="M0.09,0L0.09,-0.536L0.235,-0.536L0.235,-0.435C0.282,-0.511 0.343,-0.548 0.417,-0.548C0.465,-0.548 0.503,-0.533 0.531,-0.503C0.558,-0.473 0.572,-0.431 0.572,-0.379L0.572,0L0.428,0L0.428,-0.343C0.428,-0.404 0.408,-0.435 0.367,-0.435C0.321,-0.435 0.277,-0.402 0.235,-0.337L0.235,0L0.09,0Z" style="fill:rgb(35,31,32);fill-rule:nonzero;"/>
            </g>
            <g transform="matrix(17.6453,0,0,17.6453,126.797,163.862)">
                <path d="M0.353,-0.058C0.305,-0.011 0.253,0.012 0.198,0.012C0.151,0.012 0.113,-0.002 0.084,-0.031C0.055,-0.059 0.04,-0.097 0.04,-0.142C0.04,-0.201 0.064,-0.247 0.111,-0.279C0.158,-0.311 0.226,-0.327 0.314,-0.327L0.353,-0.327L0.353,-0.376C0.353,-0.432 0.321,-0.459 0.258,-0.459C0.201,-0.459 0.145,-0.444 0.087,-0.412L0.087,-0.511C0.152,-0.536 0.217,-0.548 0.281,-0.548C0.422,-0.548 0.492,-0.493 0.492,-0.381L0.492,-0.144C0.492,-0.102 0.505,-0.081 0.532,-0.081C0.537,-0.081 0.543,-0.081 0.551,-0.083L0.555,-0.001C0.524,0.008 0.497,0.012 0.474,0.012C0.414,0.012 0.376,-0.011 0.359,-0.058L0.353,-0.058ZM0.353,-0.135L0.353,-0.244L0.319,-0.244C0.225,-0.244 0.179,-0.215 0.179,-0.156C0.179,-0.136 0.185,-0.12 0.199,-0.106C0.212,-0.093 0.229,-0.086 0.249,-0.086C0.283,-0.086 0.318,-0.102 0.353,-0.135Z" style="fill:rgb(35,31,32);fill-rule:nonzero;"/>
            </g>
            <g transform="matrix(17.6453,0,0,17.6453,136.194,163.862)">
                <path d="M0.223,0L0.018,-0.536L0.17,-0.536L0.32,-0.149L0.469,-0.536L0.574,-0.536L0.367,0L0.223,0Z" style="fill:rgb(35,31,32);fill-rule:nonzero;"/>
            </g>
            <g transform="matrix(17.6453,0,0,17.6453,145.685,163.862)">
                <path d="M0.09,0L0.09,-0.536L0.235,-0.536L0.235,0L0.09,0ZM0.09,-0.626L0.09,-0.747L0.235,-0.747L0.235,-0.626L0.09,-0.626Z" style="fill:rgb(35,31,32);fill-rule:nonzero;"/>
            </g>
            <g transform="matrix(17.6453,0,0,17.6453,150.446,163.862)">
                <path d="M0.09,0L0.09,-0.536L0.235,-0.536L0.235,-0.435C0.272,-0.511 0.329,-0.548 0.406,-0.548C0.415,-0.548 0.424,-0.547 0.433,-0.545L0.433,-0.417C0.412,-0.424 0.393,-0.428 0.375,-0.428C0.318,-0.428 0.271,-0.399 0.235,-0.34L0.235,0L0.09,0Z" style="fill:rgb(35,31,32);fill-rule:nonzero;"/>
            </g>
            <g transform="matrix(17.6453,0,0,17.6453,157.491,163.862)">
                <path d="M0.422,0L0.422,-0.101C0.375,-0.026 0.314,0.012 0.239,0.012C0.191,0.012 0.154,-0.003 0.126,-0.033C0.098,-0.063 0.084,-0.105 0.084,-0.157L0.084,-0.536L0.229,-0.536L0.229,-0.193C0.229,-0.132 0.249,-0.102 0.29,-0.102C0.336,-0.102 0.38,-0.134 0.422,-0.199L0.422,-0.536L0.566,-0.536L0.566,0L0.422,0Z" style="fill:rgb(35,31,32);fill-rule:nonzero;"/>
            </g>
            <g transform="matrix(17.6453,0,0,17.6453,168.103,163.862)">
                <path d="M0.076,-0.017L0.076,-0.123C0.148,-0.093 0.209,-0.078 0.26,-0.078C0.319,-0.078 0.349,-0.098 0.349,-0.139C0.349,-0.165 0.324,-0.188 0.275,-0.207L0.227,-0.227C0.174,-0.248 0.136,-0.271 0.113,-0.296C0.09,-0.321 0.079,-0.351 0.079,-0.388C0.079,-0.438 0.098,-0.478 0.137,-0.506C0.175,-0.534 0.23,-0.548 0.299,-0.548C0.343,-0.548 0.395,-0.542 0.455,-0.529L0.455,-0.428C0.397,-0.448 0.349,-0.458 0.311,-0.458C0.251,-0.458 0.221,-0.439 0.221,-0.402C0.221,-0.378 0.243,-0.357 0.288,-0.34L0.33,-0.324C0.392,-0.3 0.436,-0.276 0.461,-0.252C0.485,-0.228 0.498,-0.196 0.498,-0.158C0.498,-0.107 0.477,-0.066 0.435,-0.035C0.393,-0.003 0.339,0.012 0.271,0.012C0.207,0.012 0.142,0.002 0.076,-0.017Z" style="fill:rgb(35,31,32);fill-rule:nonzero;"/>
            </g>
        </g>
    </g>
</svg>
